X: 568
T: Absent-minded Woman, The
R: reel
M: 4/4
K: Gmajor
|:~G2 GA BABd|edgd edBA|~G2 GA BABd|egdB AGEF|
~G2 GA BABd|edgd ~e2 dB|dega bage|d2 BG AGED:|
|:~g2 bg agbg|~g2 bg aged|~g2 bg agbg|gedB AGED|
~g2 bg agbg|~g2 bg ageg|bgaf gedB|cABG AGED:|

